symbols/web/tornado/materialsymbolsoutlined/tornado_wght700grad200_24px.svg

<svg xmlns="http://www.w3.org/2000/svg" height="24" width="24"><path d="M-.1 2.375h24.2L12 23.25Zm5.925 3.4L6.7 7.3h10.6l.875-1.525ZM8.65 10.7l.95 1.6h4.8l.95-1.6Zm2.9 5 .45.75.45-.75Z"/></svg>

<svg xmlns="http://www.w3.org/2000/svg" height="24" width="24"><path d="M-0.1 2.375H24.1L12 23.25ZM5.825 5.775 6.7 7.3H17.3L18.175 5.775ZM8.65 10.7 9.6 12.3H14.4L15.35 10.7ZM11.55 15.7 12 16.45 12.45 15.7Z"/></svg>
